; generated by Slic3r 1.2.9 on 2016-01-04 at 14:41:51

; external perimeters extrusion width = 0.40mm
; perimeters extrusion width = 0.40mm
; infill extrusion width = 0.65mm
; solid infill extrusion width = 0.40mm
; top infill extrusion width = 0.40mm

M104 S220 ; set temperature
; -- START GCODE --
M800        ; Custom GCODE to fire start print procedure
; -- end of START GCODE --
M109 S220 ; wait for temperature to be reached
G21 ; set units to millimeters
G90 ; use absolute coordinates
M82 ; use absolute distances for extrusion
G92 E0
M106 S255
; LAYER 0, HEIGHT 0.2
G1 Z0.200 F12000.000
G1 E-1.50000 F12000.00000
G92 E0
G1 X72.973 Y74.089 F12000.000
G1 E1.50000 F12000.00000
M204 S1000
G1 X74.741 Y72.511 E1.57037 F4500.000
G1 X76.931 Y71.605 E1.64074
G1 X78.500 Y71.429 E1.68763
G1 X121.500 Y71.429 E2.96435
G1 X123.837 Y71.826 E3.03472
G1 X125.911 Y72.973 E3.10509
G1 X127.489 Y74.741 E3.17546
G1 X128.395 Y76.931 E3.24583
G1 X128.571 Y78.500 E3.29271
G1 X128.571 Y121.500 E4.56944
G1 X128.174 Y123.837 E4.63981
G1 X127.027 Y125.911 E4.71018
G1 X125.259 Y127.489 E4.78055
G1 X123.069 Y128.395 E4.85091
G1 X121.500 Y128.571 E4.89780
G1 X78.500 Y128.571 E6.17453
G1 X76.163 Y128.174 E6.24490
G1 X74.089 Y127.027 E6.31527
G1 X72.511 Y125.259 E6.38563
G1 X71.605 Y123.069 E6.45600
G1 X71.429 Y121.500 E6.50289
G1 X71.429 Y78.500 E7.77962
G1 X71.826 Y76.163 E7.84999
G1 X72.944 Y74.142 E7.91857
G1 X73.327 Y74.220 F12000.000
G1 X75.083 Y72.720 E7.98713 F4500.000
G1 X77.243 Y71.905 E8.05569
G1 X78.500 Y71.786 E8.09318
G1 X121.500 Y71.786 E9.36990
G1 X123.775 Y72.183 E9.43846
G1 X125.780 Y73.327 E9.50701
G1 X127.280 Y75.083 E9.57557
G1 X128.095 Y77.243 E9.64413
G1 X128.214 Y78.500 E9.68162
G1 X128.214 Y121.500 E10.95834
G1 X127.817 Y123.775 E11.02690
G1 X126.673 Y125.780 E11.09546
G1 X124.917 Y127.280 E11.16401
G1 X122.757 Y128.095 E11.23257
G1 X121.500 Y128.214 E11.27006
G1 X78.500 Y128.214 E12.54679
G1 X76.225 Y127.817 E12.61534
G1 X74.220 Y126.673 E12.68390
G1 X72.720 Y124.917 E12.75246
G1 X71.905 Y122.757 E12.82101
G1 X71.786 Y121.500 E12.85850
G1 X71.786 Y78.500 E14.13523
G1 X72.183 Y76.225 E14.20378
G1 X73.297 Y74.272 E14.27056
G1 X73.681 Y74.354 F12000.000
G1 X75.423 Y72.937 E14.33725 F4500.000
G1 X78.500 Y72.143 E14.43159
G1 X121.500 Y72.143 E15.70832
G1 X123.711 Y72.540 E15.77501
G1 X125.646 Y73.681 E15.84171
G1 X127.063 Y75.423 E15.90840
G1 X127.857 Y78.500 E16.00274
G1 X127.857 Y121.500 E17.27946
G1 X127.460 Y123.711 E17.34616
G1 X126.319 Y125.646 E17.41285
G1 X124.577 Y127.063 E17.47955
G1 X121.500 Y127.857 E17.57389
G1 X78.500 Y127.857 E18.85061
G1 X76.289 Y127.460 E18.91731
G1 X74.354 Y126.319 E18.98400
G1 X72.937 Y124.577 E19.05069
G1 X72.143 Y121.500 E19.14503
G1 X72.143 Y78.500 E20.42176
G1 X72.540 Y76.289 E20.48845
G1 X73.650 Y74.406 E20.55337
G1 E19.05337 F12000.00000
G92 E0
G1 X115.842 Y116.057 F12000.000
G1 E1.50000 F12000.00000
G1 X84.158 Y116.057 E2.44072 F4500.000
G1 X84.399 Y116.354 E2.45207
G1 X84.642 Y116.831 E2.46796
G1 X84.780 Y117.348 E2.48385
G1 X84.808 Y117.882 E2.49975
G1 X84.725 Y118.411 E2.51564
G1 X84.533 Y118.911 E2.53153
G1 X84.241 Y119.359 E2.54742
G1 X83.863 Y119.738 E2.56331
G1 X83.414 Y120.030 E2.57920
G1 X82.914 Y120.221 E2.59509
G1 X82.386 Y120.305 E2.61098
G1 X81.851 Y120.277 E2.62687
G1 X81.334 Y120.138 E2.64277
G1 X80.857 Y119.895 E2.65866
G1 X80.441 Y119.559 E2.67455
G1 X80.105 Y119.143 E2.69044
G1 X79.862 Y118.666 E2.70633
G1 X79.723 Y118.149 E2.72222
G1 X79.695 Y117.614 E2.73811
G1 X79.779 Y117.086 E2.75401
G1 X79.970 Y116.586 E2.76989
G1 X80.262 Y116.137 E2.78579
G1 X80.641 Y115.759 E2.80168
G1 X81.089 Y115.467 E2.81757
G1 X81.589 Y115.275 E2.83346
G1 X82.118 Y115.192 E2.84935
G1 X82.652 Y115.220 E2.86524
G1 X83.169 Y115.358 E2.88114
G1 X83.646 Y115.601 E2.89703
G1 X83.943 Y115.842 E2.90837
G1 X83.943 Y84.158 E3.84910
G1 X83.646 Y84.399 E3.86044
G1 X83.169 Y84.642 E3.87633
G1 X82.652 Y84.780 E3.89223
G1 X82.118 Y84.808 E3.90812
G1 X81.589 Y84.725 E3.92401
G1 X81.089 Y84.533 E3.93990
G1 X80.641 Y84.241 E3.95579
G1 X80.262 Y83.863 E3.97168
G1 X79.970 Y83.414 E3.98757
G1 X79.779 Y82.914 E4.00346
G1 X79.695 Y82.386 E4.01935
G1 X79.723 Y81.851 E4.03525
G1 X79.862 Y81.334 E4.05114
G1 X80.105 Y80.857 E4.06703
G1 X80.441 Y80.441 E4.08292
G1 X80.857 Y80.105 E4.09881
G1 X81.334 Y79.862 E4.11470
G1 X81.851 Y79.723 E4.13060
G1 X82.386 Y79.695 E4.14649
G1 X82.914 Y79.779 E4.16238
G1 X83.414 Y79.970 E4.17827
G1 X83.863 Y80.262 E4.19416
G1 X84.241 Y80.641 E4.21005
G1 X84.533 Y81.089 E4.22594
G1 X84.725 Y81.589 E4.24183
G1 X84.808 Y82.118 E4.25772
G1 X84.780 Y82.652 E4.27362
G1 X84.642 Y83.169 E4.28951
G1 X84.399 Y83.646 E4.30540
G1 X84.158 Y83.943 E4.31674
G1 X115.842 Y83.943 E5.25747
G1 X115.601 Y83.646 E5.26881
G1 X115.358 Y83.169 E5.28471
G1 X115.220 Y82.652 E5.30060
G1 X115.192 Y82.118 E5.31649
G1 X115.275 Y81.589 E5.33238
G1 X115.467 Y81.089 E5.34827
G1 X115.759 Y80.641 E5.36416
G1 X116.137 Y80.262 E5.38005
G1 X116.586 Y79.970 E5.39595
G1 X117.086 Y79.779 E5.41184
G1 X117.614 Y79.695 E5.42773
G1 X118.149 Y79.723 E5.44362
G1 X118.666 Y79.862 E5.45951
G1 X119.143 Y80.105 E5.47540
G1 X119.559 Y80.441 E5.49129
G1 X119.895 Y80.857 E5.50718
G1 X120.138 Y81.334 E5.52308
G1 X120.277 Y81.851 E5.53897
G1 X120.305 Y82.386 E5.55486
G1 X120.221 Y82.914 E5.57075
G1 X120.030 Y83.414 E5.58664
G1 X119.738 Y83.863 E5.60253
G1 X119.359 Y84.241 E5.61842
G1 X118.911 Y84.533 E5.63431
G1 X118.411 Y84.725 E5.65021
G1 X117.882 Y84.808 E5.66610
G1 X117.348 Y84.780 E5.68199
G1 X116.831 Y84.642 E5.69788
G1 X116.354 Y84.399 E5.71377
G1 X116.057 Y84.158 E5.72512
G1 X116.057 Y115.842 E6.66584
G1 X116.354 Y115.601 E6.67719
G1 X116.831 Y115.358 E6.69308
G1 X117.348 Y115.220 E6.70897
G1 X117.882 Y115.192 E6.72486
G1 X118.411 Y115.275 E6.74075
G1 X118.911 Y115.467 E6.75665
G1 X119.359 Y115.759 E6.77253
G1 X119.738 Y116.137 E6.78843
G1 X120.030 Y116.586 E6.80432
G1 X120.221 Y117.086 E6.82021
G1 X120.305 Y117.614 E6.83610
G1 X120.277 Y118.149 E6.85199
G1 X120.138 Y118.666 E6.86788
G1 X119.895 Y119.143 E6.88377
G1 X119.559 Y119.559 E6.89966
G1 X119.143 Y119.895 E6.91556
G1 X118.666 Y120.138 E6.93145
G1 X118.149 Y120.277 E6.94734
G1 X117.614 Y120.305 E6.96323
G1 X117.086 Y120.221 E6.97912
G1 X116.586 Y120.030 E6.99501
G1 X116.137 Y119.738 E7.01090
G1 X115.759 Y119.359 E7.02680
G1 X115.467 Y118.911 E7.04268
G1 X115.275 Y118.411 E7.05858
G1 X115.192 Y117.882 E7.07447
G1 X115.220 Y117.348 E7.09036
G1 X115.358 Y116.831 E7.10625
G1 X115.601 Y116.354 E7.12214
G1 X115.804 Y116.104 E7.13171
G1 X116.192 Y116.192 F12000.000
G1 X116.550 Y115.902 E7.14537 F2700.000
G1 X116.960 Y115.693 E7.15903
G1 X117.404 Y115.574 E7.17270
G1 X117.864 Y115.550 E7.18636
G1 X118.318 Y115.622 E7.20002
G1 X118.748 Y115.787 E7.21369
G1 X119.134 Y116.038 E7.22735
G1 X119.459 Y116.363 E7.24101
G1 X119.710 Y116.749 E7.25467
G1 X119.874 Y117.179 E7.26833
G1 X119.946 Y117.633 E7.28200
G1 X119.922 Y118.093 E7.29566
G1 X119.803 Y118.537 E7.30932
G1 X119.594 Y118.947 E7.32299
G1 X119.305 Y119.305 E7.33665
G1 X118.947 Y119.594 E7.35031
G1 X118.537 Y119.803 E7.36397
G1 X118.093 Y119.922 E7.37764
G1 X117.633 Y119.946 E7.39130
G1 X117.179 Y119.874 E7.40496
G1 X116.749 Y119.710 E7.41862
G1 X116.363 Y119.459 E7.43229
G1 X116.038 Y119.134 E7.44595
G1 X115.787 Y118.748 E7.45961
G1 X115.622 Y118.318 E7.47327
G1 X115.550 Y117.864 E7.48693
G1 X115.574 Y117.404 E7.50060
G1 X115.693 Y116.960 E7.51426
G1 X115.902 Y116.550 E7.52792
G1 X116.154 Y116.239 E7.53980
G1 X116.102 Y115.802 F12000.000
G1 X117.864 Y84.450 F12000.000
G1 X117.404 Y84.426 E7.55347 F2700.000
G1 X116.960 Y84.307 E7.56713
G1 X116.550 Y84.098 E7.58079
G1 X116.192 Y83.808 E7.59446
G1 X115.902 Y83.450 E7.60812
G1 X115.693 Y83.040 E7.62178
G1 X115.574 Y82.596 E7.63545
G1 X115.550 Y82.136 E7.64911
G1 X115.622 Y81.682 E7.66277
G1 X115.787 Y81.252 E7.67644
G1 X116.038 Y80.866 E7.69010
G1 X116.363 Y80.541 E7.70376
G1 X116.749 Y80.290 E7.71742
G1 X117.179 Y80.126 E7.73108
G1 X117.633 Y80.054 E7.74475
G1 X118.093 Y80.078 E7.75841
G1 X118.537 Y80.197 E7.77207
G1 X118.947 Y80.406 E7.78574
G1 X119.305 Y80.695 E7.79940
G1 X119.594 Y81.053 E7.81306
G1 X119.803 Y81.463 E7.82672
G1 X119.922 Y81.907 E7.84039
G1 X119.946 Y82.367 E7.85405
G1 X119.874 Y82.821 E7.86771
G1 X119.710 Y83.251 E7.88137
G1 X119.459 Y83.637 E7.89504
G1 X119.134 Y83.962 E7.90870
G1 X118.748 Y84.213 E7.92236
G1 X118.318 Y84.378 E7.93602
G1 X117.923 Y84.440 E7.94790
G1 X117.670 Y84.800 F12000.000
G1 X115.700 Y84.300 F12000.000
G1 X115.700 Y115.700 E8.88021 F2700.000
G1 X84.300 Y115.700 E9.81252
G1 X84.300 Y84.300 E10.74482
G1 X115.640 Y84.300 E11.67535
G1 X116.100 Y84.300 F12000.000
G1 X84.426 Y82.596 F12000.000
G1 X84.307 Y83.040 E11.68901 F2700.000
G1 X84.098 Y83.450 E11.70267
G1 X83.808 Y83.808 E11.71634
G1 X83.450 Y84.098 E11.73000
G1 X83.040 Y84.307 E11.74366
G1 X82.596 Y84.426 E11.75732
G1 X82.136 Y84.450 E11.77099
G1 X81.682 Y84.378 E11.78465
G1 X81.252 Y84.213 E11.79831
G1 X80.866 Y83.962 E11.81197
G1 X80.541 Y83.637 E11.82564
G1 X80.290 Y83.251 E11.83930
G1 X80.126 Y82.821 E11.85296
G1 X80.054 Y82.367 E11.86662
G1 X80.078 Y81.907 E11.88029
G1 X80.197 Y81.463 E11.89395
G1 X80.406 Y81.053 E11.90761
G1 X80.695 Y80.695 E11.92127
G1 X81.053 Y80.406 E11.93494
G1 X81.463 Y80.197 E11.94860
G1 X81.907 Y80.078 E11.96226
G1 X82.367 Y80.054 E11.97593
G1 X82.821 Y80.126 E11.98959
G1 X83.251 Y80.290 E12.00325
G1 X83.637 Y80.541 E12.01691
G1 X83.962 Y80.866 E12.03058
G1 X84.213 Y81.252 E12.04424
G1 X84.378 Y81.682 E12.05790
G1 X84.450 Y82.136 E12.07156
G1 X84.429 Y82.536 E12.08345
G1 X84.728 Y82.858 F12000.000
G1 X82.596 Y115.574 F12000.000
G1 X83.040 Y115.693 E12.09711 F2700.000
G1 X83.450 Y115.902 E12.11077
G1 X83.808 Y116.192 E12.12443
G1 X84.098 Y116.550 E12.13810
G1 X84.307 Y116.960 E12.15176
G1 X84.426 Y117.404 E12.16542
G1 X84.450 Y117.864 E12.17909
G1 X84.378 Y118.318 E12.19275
G1 X84.213 Y118.748 E12.20641
G1 X83.962 Y119.134 E12.22007
G1 X83.637 Y119.459 E12.23373
G1 X83.251 Y119.710 E12.24740
G1 X82.821 Y119.874 E12.26106
G1 X82.367 Y119.946 E12.27472
G1 X81.907 Y119.922 E12.28838
G1 X81.463 Y119.803 E12.30205
G1 X81.053 Y119.594 E12.31571
G1 X80.695 Y119.305 E12.32937
G1 X80.406 Y118.947 E12.34303
G1 X80.197 Y118.537 E12.35670
G1 X80.078 Y118.093 E12.37036
G1 X80.054 Y117.633 E12.38402
G1 X80.126 Y117.179 E12.39769
G1 X80.290 Y116.749 E12.41135
G1 X80.541 Y116.363 E12.42501
G1 X80.866 Y116.038 E12.43867
G1 X81.252 Y115.787 E12.45233
G1 X81.682 Y115.622 E12.46600
G1 X82.136 Y115.550 E12.47966
G1 X82.536 Y115.571 E12.49154
G1 X82.858 Y115.272 F12000.000
G1 X79.414 Y81.624 F12000.000
G1 X79.414 Y79.414 E12.55716 F2700.000
G1 X81.624 Y79.414 E12.62277
G1 X81.205 Y79.526 E12.63563
G1 X80.662 Y79.803 E12.65375
G1 X80.187 Y80.187 E12.67187
G1 X79.803 Y80.662 E12.68999
G1 X79.526 Y81.205 E12.70811
G1 X79.430 Y81.566 E12.71920
G1 X79.432 Y83.007 F12000.000
G1 X79.651 Y83.577 E12.73731 F4500.000
G1 X79.983 Y84.089 E12.75544
G1 X80.415 Y84.520 E12.77356
G1 X80.926 Y84.853 E12.79167
G1 X81.496 Y85.071 E12.80979
G1 X82.099 Y85.167 E12.82791
G1 X82.708 Y85.135 E12.84604
G1 X83.298 Y84.977 E12.86416
G1 X83.586 Y84.830 E12.87375
G1 X83.586 Y115.170 E13.77458
G1 X83.298 Y115.023 E13.78418
G1 X82.708 Y114.865 E13.80230
G1 X82.099 Y114.833 E13.82042
G1 X81.496 Y114.929 E13.83854
G1 X80.926 Y115.147 E13.85666
G1 X80.415 Y115.480 E13.87478
G1 X79.983 Y115.911 E13.89290
G1 X79.651 Y116.423 E13.91102
G1 X79.432 Y116.993 E13.92914
G1 X79.414 Y117.105 E13.93251
G1 X79.414 Y82.895 E14.94824
G1 X79.423 Y82.948 E14.94983
G1 X79.414 Y118.376 F12000.000
G1 X79.526 Y118.795 E14.96270 F2700.000
G1 X79.803 Y119.338 E14.98082
G1 X80.187 Y119.813 E14.99894
G1 X80.662 Y120.197 E15.01706
G1 X81.205 Y120.474 E15.03518
G1 X81.624 Y120.586 E15.04804
G1 X79.414 Y120.586 E15.11366
G1 X79.414 Y118.436 E15.17749
G1 X82.895 Y120.586 F12000.000
G1 X83.007 Y120.568 E15.18086 F4500.000
G1 X83.577 Y120.349 E15.19898
G1 X84.089 Y120.017 E15.21710
G1 X84.520 Y119.585 E15.23522
G1 X84.853 Y119.074 E15.25334
G1 X85.071 Y118.504 E15.27146
G1 X85.167 Y117.901 E15.28958
G1 X85.135 Y117.292 E15.30770
G1 X84.977 Y116.702 E15.32582
G1 X84.830 Y116.414 E15.33542
G1 X115.170 Y116.414 E16.23624
G1 X115.023 Y116.702 E16.24584
G1 X114.865 Y117.292 E16.26396
G1 X114.833 Y117.901 E16.28208
G1 X114.929 Y118.504 E16.30020
G1 X115.147 Y119.074 E16.31832
G1 X115.480 Y119.585 E16.33644
G1 X115.911 Y120.017 E16.35456
G1 X116.423 Y120.349 E16.37268
G1 X116.993 Y120.568 E16.39080
G1 X117.105 Y120.586 E16.39417
G1 X82.955 Y120.586 E17.40813
G1 X85.253 Y117.906 F12000.000
G1 X112.816 Y118.500 F12000.000
G1 X113.413 Y117.836 F12000.000
G1 X114.041 Y117.239 F12000.000
G1 X114.780 Y117.278 F12000.000
G1 X116.414 Y115.170 F12000.000
G1 X116.414 Y84.830 E18.30895 F4500.000
G1 X116.702 Y84.977 E18.31855
G1 X117.292 Y85.135 E18.33667
G1 X117.901 Y85.167 E18.35479
G1 X118.504 Y85.071 E18.37291
G1 X119.074 Y84.853 E18.39103
G1 X119.585 Y84.520 E18.40915
G1 X120.017 Y84.089 E18.42727
G1 X120.349 Y83.577 E18.44539
G1 X120.568 Y83.007 E18.46351
G1 X120.586 Y82.895 E18.46688
G1 X120.586 Y117.105 E19.48262
G1 X120.568 Y116.993 E19.48599
G1 X120.349 Y116.423 E19.50411
G1 X120.017 Y115.911 E19.52223
G1 X119.585 Y115.480 E19.54035
G1 X119.074 Y115.147 E19.55847
G1 X118.504 Y114.929 E19.57659
G1 X117.901 Y114.833 E19.59471
G1 X117.292 Y114.865 E19.61283
G1 X116.702 Y115.023 E19.63095
G1 X116.468 Y115.143 E19.63877
G1 X119.640 Y115.413 F12000.000
G1 X120.256 Y115.685 F12000.000
G1 X120.460 Y116.362 F12000.000
G1 X120.462 Y116.370 F12000.000
G1 X120.500 Y116.576 F12000.000
G1 X120.586 Y118.376 F12000.000
G1 X120.586 Y120.586 E19.70438 F2700.000
G1 X118.376 Y120.586 E19.77000
G1 X118.795 Y120.474 E19.78286
G1 X119.338 Y120.197 E19.80098
G1 X119.813 Y119.813 E19.81910
G1 X120.197 Y119.338 E19.83722
G1 X120.474 Y118.795 E19.85534
G1 X120.570 Y118.434 E19.86642
G1 X120.586 Y81.624 F12000.000
G1 X120.474 Y81.205 E19.87929 F2700.000
G1 X120.197 Y80.662 E19.89741
G1 X119.813 Y80.187 E19.91553
G1 X119.338 Y79.803 E19.93365
G1 X118.795 Y79.526 E19.95177
G1 X118.376 Y79.414 E19.96463
G1 X120.586 Y79.414 E20.03025
G1 X120.586 Y81.564 E20.09408
G1 X116.993 Y79.432 F12000.000
G1 X116.423 Y79.651 E20.11219 F4500.000
G1 X115.911 Y79.983 E20.13032
G1 X115.480 Y80.415 E20.14844
G1 X115.147 Y80.926 E20.16655
G1 X114.929 Y81.496 E20.18468
G1 X114.833 Y82.099 E20.20280
G1 X114.865 Y82.708 E20.22092
G1 X115.023 Y83.298 E20.23904
G1 X115.170 Y83.586 E20.24864
G1 X84.830 Y83.586 E21.14946
G1 X84.977 Y83.298 E21.15906
G1 X85.135 Y82.708 E21.17718
G1 X85.167 Y82.099 E21.19530
G1 X85.071 Y81.496 E21.21342
G1 X84.853 Y80.926 E21.23154
G1 X84.520 Y80.415 E21.24966
G1 X84.089 Y79.983 E21.26778
G1 X83.577 Y79.651 E21.28590
G1 X83.007 Y79.432 E21.30402
G1 X82.895 Y79.414 E21.30739
G1 X117.105 Y79.414 E22.32313
G1 X117.052 Y79.423 E22.32472
G1 X120.943 Y79.057 F12000.000
G1 X120.943 Y120.943 E23.56836 F4500.000
G1 X79.057 Y120.943 E24.81201
G1 X79.057 Y79.057 E26.05565
G1 X120.883 Y79.057 E27.29751
G1 X121.300 Y78.700 F12000.000
G1 X121.300 Y121.300 E28.56236 F2700.000
G1 X78.700 Y121.300 E29.82721
G1 X78.700 Y78.700 E31.09206
G1 X121.240 Y78.700 E32.35513
G1 X121.100 Y79.046 F12000.000
G1 X120.169 Y79.640 F12000.000
G1 X120.360 Y79.831 E32.36317 F5400.000
G1 X120.609 Y81.801 F12000.000
G1 X120.624 Y82.388 E32.40012 F5400.000
G1 X120.600 Y82.717 E32.42090
G1 X120.360 Y84.392 F12000.000
G1 X120.175 Y84.206 E32.42871 F5400.000
G1 X119.921 Y84.459 E32.43937
G1 X120.360 Y84.898 E32.45783
G1 X120.360 Y85.404 E32.47290
G1 X119.662 Y84.705 E32.50231
G1 X119.355 Y84.905 E32.51320
G1 X120.360 Y85.910 E32.55552
G1 X120.360 Y86.416 E32.57059
G1 X119.031 Y85.087 E32.62654
G1 X118.665 Y85.227 E32.63820
G1 X120.360 Y86.922 E32.70954
G1 X120.360 Y87.429 E32.72461
G1 X118.259 Y85.328 E32.81305
G1 X117.818 Y85.392 E32.82632
G1 X120.360 Y87.935 E32.93333
G1 X120.360 Y88.441 E32.94840
G1 X117.284 Y85.364 E33.07789
G1 X116.658 Y85.245 E33.09685
G1 X120.360 Y88.947 E33.25269
G1 X120.360 Y89.453 E33.26776
G1 X116.640 Y85.733 E33.42435
G1 X116.640 Y86.239 E33.43942
